X:1
R:jig
L:1/8
M:6/8
T:The Kesh
K:G
|: D | "G"G3 GAB | "D"ABA ABd | "C"edd gdd | "D"edB dBA |
"G"GAG GAB | "D"ABA ABd | "C"edd "G"gdB | "D"AGF "G"G2 :|
|: A | "G"BAB dBd | "C"e/2f/2ge dBG | "G"BAB dBG | "Am"ABA "D"AGA |
"G"BAB dBd | "C"e/2f/2ge dBd | "C"gfg "D"aga | "G"bgg g2 :|
